X:1
T:Have You Prayed It Through?
T:Have You Prayed It Through?
T:Bentley DeForest Ackley
T:William Charles Poole, 1915
T:Public Domain Courtesy of the Cyber Hymnal™
T:Public Domain Courtesy of the Cyber Hymnal™
C:Bentley DeForest Ackley
Z:Public Domain
Z:Courtesy of the Cyber Hymnal™
%%score ( 1 2 ) ( 3 4 )
L:1/8
Q:1/4=110
M:4/4
K:Eb
V:1 treble 
V:2 treble 
V:3 bass 
V:4 bass 
V:1
 E[EG] | [GB]2 [GB]2 [GB]2 [EG][GB] | [Ge]2 [Ae]2 [Ge]2 [GB][Ge] | [Ad]2 [Ac]2 [GB]2 [DA][DF] | %4
w: 1.~Have you|prayed all night, till the|break of day, And the|morn- ing light drove the|
w: 2.~Did you|pray it through, till the|an- swer came? There’s a|prom- ise true for your|
w: 3.~As the|Mas- ter prayed in the|gar- den lone, Let your|prayer be made to the|
 [EG]2 [^Fc]2 [GB]2 E[EG] | [GB]2 [GB]2 [GB]2 [EG][GB] | [Ge]2 [Ge]2 [Ge]2 [GB][Ge] | %7
w: dark a- way? Did you|lin- ger there, till the|morn- ing dew, In pre-|
w: faith to claim, At the|place of prayer, Je- sus|waits for you, Did you|
w: Fa- ther’s throne, If you|seek His will, He will|an- swer you, Are you|
 [Fd]2 [Fd]2 [DF]2 [^C=E][DF] | [Fd]2 [Ec]2 !fermata![DB]2 ||"^Refrain" [EB][E=A] | %10
w: vail- ing prayer, did you|pray it through?||
w: meet Him there, did you|pray it through?|Did you|
w: trust- ing still, have you|prayed it through?||
 [DA]2 [DA][DG] [DA]2 [DB]2 | [DA]6 [DB][DA] | [EG]2 [EG][E^F] [EG]2 [Ec]2 | [EB]6 [Ec][Fd] | %14
w: ||||
w: pray till the an- swer|came, Did you|plead in the Sav- ior’s|Name? Have you|
w: ||||
 [Ge]2 [Ge]2 [Gd]2 G[FG] | [Ec]2 [Ec]2 !fermata![EB]2 E[EF] | [EG]2 [EB][EA] [EG]2 [DF]2 | %17
w: |||
w: prayed all night till the|morn- ing light, Did you|pray till the an- swer|
w: |||
 [B,E]6 |] %18
w: |
w: came?|
w: |
V:2
 E x | x8 | x8 | x8 | x6 E x | x8 | x8 | x8 | x6 || x2 | x8 | x8 | x8 | x8 | x6 G x | x6 E x | x8 | %17
 x6 |] %18
V:3
 [E,G,][E,B,] | [E,E]2 [E,E]2 [E,E]2 [E,B,][E,B,] | [E,B,]2 [E,C]2 [E,B,]2 [E,B,][E,B,] | %3
w: ~ ~|~ ~ ~ ~ ~|~ ~ ~ ~ ~|
 [E,B,]2 [E,B,]2 [E,B,]2 [B,,F,][B,,B,] | [E,B,]2 (=A,C) [E,E]2 [E,G,][E,B,] | %5
w: ~ ~ ~ ~ ~|~ ~ * ~ ~ ~|
 [E,E]2 [E,E]2 [E,E]2 [E,B,][E,B,] | [E,B,]2 [E,C]2 [E,B,]2 [E,B,][E,B,] | %7
w: ~ ~ ~ ~ ~|~ ~ ~ ~ ~|
 [B,,B,]2 [B,,B,]2 [B,,B,]2 [B,,B,][B,,B,] | [F,=A,]2 [F,A,]2 !fermata![B,,B,]2 || %9
w: ~ ~ ~ ~ ~|~ ~ ~|
 [B,,G,][B,,^F,] | [B,,F,]2 [B,,F,][B,,=E,] [B,,F,]2 [B,,G,]2 | B,6 [G,B,][F,B,] | %12
w: ~ ~|~ ~ ~ ~ ~|~ till it|
 [E,B,]2 [E,B,][E,=A,] [E,B,]2 [E,_A,]2 | G,6 [E,G,][D,G,] | [C,C]2 [E,C]2 [G,=B,]2 [G,B,][G,B,] | %15
w: came, ~ ~ ~ ~|~ ~ ~|~ in His Name. *|
 A,2 A,2 !fermata![E,G,]2 [C,G,][C,=A,] | [B,,B,]2 [G,,B,][A,,C] [B,,B,]2 [B,,A,]2 | [E,G,]6 |] %18
w: |||
V:4
 x2 | x8 | x8 | x8 | x2 E,2 x4 | x8 | x8 | x8 | x6 || x2 | x8 | B,,2 D,F, (B,A,) x2 | x8 | %13
 E,2 B,,B,, E,2 x2 | x8 | (=A,,B,,) (C,D,) x4 | x8 | x6 |] %18

